X: 62
T:Utpick Waltz
R:Waltz
M:3/4
L:1/4
K:G
P:A
D|"G"GB>G | "D"AF E/D/|"C"E/G/-G G/A/|"G"GBd|
"Em"e2 e/f/|"C"ed B/A/|"G"Bd d/e/|"Bm"dBd|
"C"e2 e/f/|"Am/F#"ed B/A/|"Bm"B/d/-d B/A/|"Em"GED|
"Am"C>EG| "D"F>ED|"C"E/G/-G"D7"G/A/|"G"G2"_FINE":|
P:B
"(B7)"B/d/|:"Em"eB-B/c/|B>A ((3G/A/B/)|"Bm"dB-B/c/|B B_B|
"Am"A2 A/B/|AG E/D/| "Em"E E/D/"D"B,/D/|"Em"EG "(B7)"B/d/:|"C"E "D"F|]
W:Play last line of A part an extra time for CODA
